X:1
T:Yarmouth, 76.76 D
T:Yarmouth, 76.76 D
T:C. W. Bannister (1768–1831)
T:Public Domain Courtesy of the Cyber Hymnal™
C:C. W. Bannister (1768–1831)
Z:Public Domain
Z:Courtesy of the Cyber Hymnal™
%%score ( 1 2 ) ( 3 4 )
L:1/8
Q:1/4=110
M:4/4
K:G
V:1 treble 
V:2 treble 
V:3 bass 
V:4 bass 
V:1
 [B,D]4 | [DG]2 [DG]2 [Dd]2 [DB]2 | [FA]4 [GB]2 [DB]2 | [DA]2 [B,G]2 [EG]2 [DF]2 | [DG]4 [B,D]4 | %5
 [DG]2 [DG]2 [Dd]2 [DB]2 | [FA]4 [GB]2 [DB]2 | A2 [Gd]2 [Fd]2 [E^c]2 | [Fd]4 [Fd]4 | %9
 [GB]2 [Gd]2 [DG]2 [Gd]2 | [Ge]4 [Gd]2 [Fd]2 | [GB]2 [Gd]2 G2 [GB]2 | [FA]4 [GB]2 | %13
 [Gd]2 [Gd]2 [Gd]2 [Gg]2 | [Ge]4 [Gd]2 [Ad]2 | [Gd]2 G2 [GB]2 [FA]2 | G4 |] %17
V:2
 x4 | x8 | x8 | x8 | x8 | x8 | x8 | A2 x6 | x8 | x8 | x8 | x4 G2 x2 | x6 | x8 | x8 | x2 G2 x4 | %16
 G4 |] %17
V:3
 G,4 | [G,B,]2 [G,B,]2 [F,A,]2 G,2 | [D,D]4 [G,D]2 G,2 | [D,F,]2 [E,G,]2 [C,C]2 [D,A,]2 | %4
 [G,,B,]4 G,4 | [G,B,]2 [G,B,]2 [F,A,]2 G,2 | [D,D]4 [G,D]2 [G,D]2 | %7
 [F,D]2 [B,D]2 [A,D]2 [A,,A,]2 | [D,A,]4 [D,A,]4 | G,2 [G,B,]2 [G,B,]2 [B,,D]2 | %10
 [C,C]4 [G,B,]2 [D,A,]2 | G,2 [G,B,]2 [B,D]2 [G,D]2 | [D,D]4 G,2 | %13
 [G,B,]2 [G,B,]2 [G,B,]2 [B,,D]2 | [C,C]4 [G,B,]2 [F,A,]2 | [G,B,]2 [E,B,]2 [D,D]2 [D,C]2 | %16
 [G,B,]4 |] %17
V:4
 G,4 | x6 G,2 | x6 G,2 | x8 | x4 G,4 | x6 G,2 | x8 | x8 | x8 | G,2 x6 | x8 | G,2 x6 | x4 G,2 | x8 | %14
 x8 | x8 | x4 |] %17

